markets/XTZ.svg

<svg width="42" height="42" viewBox="0 0 42 42" fill="none" xmlns="http://www.w3.org/2000/svg">
<g clip-path="url(#clip0_7277_55549)">
<path d="M21 42C32.598 42 42 32.598 42 21C42 9.40202 32.598 0 21 0C9.40202 0 0 9.40202 0 21C0 32.598 9.40202 42 21 42Z" fill="#A6E000"/>
<path fill-rule="evenodd" clip-rule="evenodd" d="M23.8744 34.125C21.9581 34.125 20.5616 33.6735 19.6849 32.7731C18.8094 31.8701 18.3711 30.8976 18.3711 29.8554C18.3711 29.4748 18.4472 29.1532 18.6007 28.8934C18.7505 28.6354 18.9667 28.4224 19.2268 28.2765C19.4919 28.1269 19.8174 28.0507 20.2046 28.0507C20.5918 28.0507 20.9186 28.1269 21.1837 28.2765C21.4489 28.4274 21.6562 28.6322 21.8098 28.8934C21.9634 29.1532 22.0395 29.4748 22.0395 29.8554C22.0395 30.3161 21.9279 30.6915 21.7035 30.9829C21.5068 31.2539 21.2278 31.4542 20.9081 31.5538C21.1732 31.9148 21.5906 32.1707 22.1616 32.3203C22.7325 32.4818 23.3034 32.5618 23.8731 32.5618C24.6387 32.5707 25.3896 32.3509 26.0295 31.9305C26.6713 31.5092 27.1451 30.8871 27.4496 30.0668C27.7554 29.2438 27.909 28.3119 27.909 27.2698C27.909 26.1371 27.741 25.1698 27.405 24.3679C27.0782 23.5554 26.5939 22.9543 25.9521 22.5632C25.3275 22.1774 24.6072 21.9746 23.8731 21.9778C23.3848 21.9778 22.7732 22.1773 22.0395 22.5789L20.6942 23.2404V22.5789L26.7474 14.6409H18.3711V22.8795C18.3711 23.562 18.5233 24.1224 18.8304 24.5634C19.1349 25.0044 19.6048 25.2249 20.2348 25.2249C20.7244 25.2249 21.1929 25.0648 21.6418 24.7432C22.092 24.4205 22.4847 24.0243 22.8034 23.5712C22.8349 23.4924 22.8882 23.4241 22.9569 23.3743C23.0123 23.3273 23.0825 23.3013 23.1551 23.3008C23.268 23.3008 23.3992 23.3559 23.5528 23.4649C23.6921 23.6166 23.7685 23.8155 23.7667 24.0214C23.7492 24.1631 23.7238 24.3038 23.6906 24.4427C23.3441 25.2039 22.8637 25.7854 22.2534 26.187C21.6557 26.5835 20.9534 26.7928 20.2361 26.7881C18.4222 26.7881 17.1688 26.4377 16.4758 25.7355C15.7828 25.0346 15.4363 24.0817 15.4363 22.8795V14.6409H11.1562V13.1066H15.435V9.62062L14.4585 8.65725V7.875H17.3014L18.3711 8.41575V13.1066L29.4367 13.0764L30.5392 14.1593L23.751 20.8346C24.1622 20.673 24.5945 20.5713 25.0346 20.5328C25.7696 20.5328 26.5939 20.7638 27.5113 21.2258C28.4392 21.6759 29.1519 22.2981 29.6507 23.0895C30.1507 23.8717 30.4723 24.6238 30.6141 25.3457C30.7567 25.9774 30.8337 26.6222 30.8437 27.2698C30.8533 28.5107 30.5705 29.7364 30.0182 30.8477C29.4874 31.9307 28.6031 32.8002 27.5113 33.3126C26.3767 33.857 25.1328 34.1349 23.8744 34.125V34.125Z" fill="white"/>
</g>
<defs>
<clipPath id="clip0_7277_55549">
<rect width="42" height="42" fill="white"/>
</clipPath>
</defs>
</svg>

<svg xmlns="http://www.w3.org/2000/svg" width="42" height="42" fill="none"><g clip-path="url(#a)"><path fill="#A6E000" d="M21 42c11.598 0 21-9.402 21-21S32.598 0 21 0 0 9.402 0 21s9.402 21 21 21Z"/><path fill="#fff" fill-rule="evenodd" d="M23.874 34.125c-1.916 0-3.312-.452-4.19-1.352-.875-.903-1.313-1.875-1.313-2.918 0-.38.076-.702.23-.962.15-.258.366-.47.626-.617.265-.15.59-.225.978-.225.387 0 .714.076.979.226.265.15.472.355.626.616.153.26.23.582.23.962 0 .461-.112.837-.337 1.128a1.554 1.554 0 0 1-.795.57c.265.362.683.618 1.254.767.57.162 1.141.242 1.711.242a3.846 3.846 0 0 0 2.156-.631c.642-.422 1.116-1.044 1.42-1.864.306-.823.46-1.755.46-2.797 0-1.133-.168-2.1-.504-2.902-.327-.813-.811-1.414-1.453-1.805a3.924 3.924 0 0 0-2.079-.585c-.488 0-1.1.2-1.834.6l-1.345.662v-.661l6.053-7.938h-8.376v8.239c0 .682.152 1.242.46 1.683.304.441.774.662 1.404.662.49 0 .958-.16 1.407-.482.45-.322.843-.719 1.161-1.172a.45.45 0 0 1 .154-.197.31.31 0 0 1 .198-.073c.113 0 .244.055.398.164.14.152.215.35.214.556a3.834 3.834 0 0 1-.076.422c-.347.76-.827 1.342-1.438 1.744-.597.396-1.3.606-2.017.601-1.814 0-3.067-.35-3.76-1.053-.693-.7-1.04-1.653-1.04-2.855v-8.24h-4.28v-1.533h4.279V9.62l-.976-.964v-.782H17.3l1.07.54v4.692l11.066-.03 1.102 1.082-6.788 6.676a4.607 4.607 0 0 1 1.284-.302c.735 0 1.559.23 2.476.693.928.45 1.64 1.072 2.14 1.864.5.782.821 1.534.963 2.256.143.631.22 1.276.23 1.924a7.902 7.902 0 0 1-.826 3.578 5.299 5.299 0 0 1-2.507 2.465 8.257 8.257 0 0 1-3.637.812Z" clip-rule="evenodd"/></g><defs><clipPath id="a"><path fill="#fff" d="M0 0h42v42H0z"/></clipPath></defs></svg>
